_includes/icons/ios-expressionless-face.svg

<svg fill="#666" height="50" viewBox="0 0 50 50" width="50" xmlns="http://www.w3.org/2000/svg"><path d="m25 2c-12.688665 0-23 10.311335-23 23s10.311335 23 23 23 23-10.311335 23-23c0-12.633831-10.226618-22.8957871-22.839844-22.984375a1.0001 1.0001 0 0 0 -.160156-.015625zm0 2c11.607335 0 21 9.392665 21 21s-9.392665 21-21 21-21-9.392665-21-21 9.392665-21 21-21zm-8 14a3 3 0 0 0 -3 3 3 3 0 0 0 3 3 3 3 0 0 0 3-3 3 3 0 0 0 -3-3zm16 0a3 3 0 0 0 -3 3 3 3 0 0 0 3 3 3 3 0 0 0 3-3 3 3 0 0 0 -3-3zm-18 13a1.0001 1.0001 0 1 0 0 2h20a1.0001 1.0001 0 1 0 0-2z"/></svg>

<svg xmlns="http://www.w3.org/2000/svg" viewBox="0 0 50 50" width="50" height="50" fill="#666"><path style="line-height:normal;text-indent:0;text-align:start;text-decoration-line:none;text-decoration-style:solid;text-decoration-color:#000;text-transform:none;block-progression:tb;isolation:auto;mix-blend-mode:normal" d="M 25 2 C 12.311335 2 2 12.311335 2 25 C 2 37.688665 12.311335 48 25 48 C 37.688665 48 48 37.688665 48 25 C 48 12.366169 37.773382 2.1042129 25.160156 2.015625 A 1.0001 1.0001 0 0 0 25 2 z M 25 4 C 36.607335 4 46 13.392665 46 25 C 46 36.607335 36.607335 46 25 46 C 13.392665 46 4 36.607335 4 25 C 4 13.392665 13.392665 4 25 4 z M 17 18 A 3 3 0 0 0 14 21 A 3 3 0 0 0 17 24 A 3 3 0 0 0 20 21 A 3 3 0 0 0 17 18 z M 33 18 A 3 3 0 0 0 30 21 A 3 3 0 0 0 33 24 A 3 3 0 0 0 36 21 A 3 3 0 0 0 33 18 z M 15 31 A 1.0001 1.0001 0 1 0 15 33 L 35 33 A 1.0001 1.0001 0 1 0 35 31 L 15 31 z"/></svg>
